X: 0
T: The East Neuk O' Fife
C: James Oswald
O: Scotland
R: country dance
M: 4/4
L: 1/8
K: Gmaj
D2|:G2 G2 G2 Bc|dBGB dBGB|A2 A2 A2 gf|edef g2 fe|
dcBA GABc|dBGB d2 cB|ABcd BcAc|1 G2 E2 E2 D2:|2 G2 E2 E2 dc||
|:B2 G2 G2 dc|B2 G2 G2 ed|c2 A2 A2 fg|a2 A2 A2 Bc|d2 G2 B2 G2|
g2 G2 d2 cB|ABcd BcAB|1 G2 E2 E2 dc:|2 G2 E2 E2 zD||
